X:159
T:Prince of Orange. JGi.159
M:6/8
L:1/8
Q:3/8=100
S:Joshua Gibbons MS,1823,Tealby,Lincs.
R:jig
O:Tealby,Lincolnshire
Z:VMP/R.Greig, 2009
K:F
C|F2Ac2f|a2a gec|d2 efed|cdB AGF|
F2Ac2f|a2a gec|d2f ege|f3-f2:|
|:e/f/|g2g fed|c2c ceg|b2ga2e|ege cef|
g2g fed|B2B ceg|b2ga2f|gfe dcB:|
|:A3BAB|c2f fed|cdc cBA|G2A BAG|
A3 BAB|c2cc2c|d2f egd|f3-f2:|

